src/assets/svgs/refactor/portal-status.svg

<svg fill="none" height="24" viewBox="0 0 22 24" width="22" xmlns="http://www.w3.org/2000/svg"><g fill="#000"><path d="m15.6148 10.3133c0-.51702-.43-.93762-.9586-.93762h-9.87233c-.52855 0-.95856.4206-.95856.93762 0 .5169.43001.9375.95856.9375h9.87233c.5286 0 .9586-.4206.9586-.9375z"/><path d="m4.78387 13.126c-.52855 0-.95856.4205-.95856.9375s.43001.9376.95856.9376h5.99333c.5285 0 .9585-.4206.9585-.9376s-.43-.9375-.9585-.9375z"/><path d="m7.04143 22.1249h-3.20716c-1.05711 0-1.91714-.8412-1.91714-1.8752v-16.49943c0-1.03395.86003-1.87513 1.91714-1.87513h11.78053c1.0571 0 1.9171.84118 1.9171 1.87513v5.76561c0 .51702.43.93762.9586.93762.5285 0 .9585-.4206.9585-.93762v-5.76561c0-2.0679-1.72-3.75027-3.8342-3.75027h-11.78053c-2.11423 0-3.83427 1.68237-3.83427 3.75027v16.49943c0 2.0679 1.72004 3.7503 3.83427 3.7503h3.20716c.52856 0 .95857-.4206.95857-.9376 0-.5169-.43001-.9375-.95857-.9375z"/><path d="m21.1512 13.5728c-1.1198-1.0953-2.9474-1.0953-4.0672 0l-5.2587 5.1348c-.1075.1051-.1971.2453-.2419.3943l-1.1467 3.6889c-.0985.3242-.0089.6835.233.9288.1791.184.43.2804.6898.2804.0895 0 .1702-.0088.2598-.035l3.8701-1.0515c.1612-.0438.3046-.1227.421-.2366l5.2497-5.126c1.1199-1.0953 1.1199-2.8828 0-3.9781zm-6.4233 7.6057-1.944.5258.5733-1.8314 3.5476-3.4611 1.3528 1.3231zm5.0705-4.9507-.1881.184-1.3527-1.3231.1881-.184c.3762-.368.9854-.368 1.3527 0s.3763.9639 0 1.3231z"/><path d="m14.6562 5.62541h-9.87233c-.52855 0-.95856.42059-.95856.93757s.43001.93757.95856.93757h9.87233c.5286 0 .9586-.42059.9586-.93757s-.43-.93757-.9586-.93757z"/></g></svg>

<svg width="22" height="24" viewBox="0 0 22 24" fill="none" xmlns="http://www.w3.org/2000/svg">
<path d="M15.6148 10.3133C15.6148 9.79628 15.1848 9.37568 14.6562 9.37568H4.78387C4.25532 9.37568 3.82531 9.79628 3.82531 10.3133C3.82531 10.8302 4.25532 11.2508 4.78387 11.2508H14.6562C15.1848 11.2508 15.6148 10.8302 15.6148 10.3133Z" fill="black"/>
<path d="M4.78387 13.126C4.25532 13.126 3.82531 13.5465 3.82531 14.0635C3.82531 14.5805 4.25532 15.0011 4.78387 15.0011H10.7772C11.3057 15.0011 11.7357 14.5805 11.7357 14.0635C11.7357 13.5465 11.3057 13.126 10.7772 13.126H4.78387Z" fill="black"/>
<path d="M7.04143 22.1249H3.83427C2.77716 22.1249 1.91713 21.2837 1.91713 20.2497V3.75027C1.91713 2.71632 2.77716 1.87514 3.83427 1.87514H15.6148C16.6719 1.87514 17.5319 2.71632 17.5319 3.75027V9.51588C17.5319 10.0329 17.9619 10.4535 18.4905 10.4535C19.019 10.4535 19.449 10.0329 19.449 9.51588V3.75027C19.449 1.68237 17.729 0 15.6148 0H3.83427C1.72004 0 0 1.68237 0 3.75027V20.2497C0 22.3176 1.72004 24 3.83427 24H7.04143C7.56999 24 8 23.5794 8 23.0624C8 22.5455 7.56999 22.1249 7.04143 22.1249Z" fill="black"/>
<path d="M21.1512 13.5728C20.0314 12.4775 18.2038 12.4775 17.084 13.5728L11.8253 18.7076C11.7178 18.8127 11.6282 18.9529 11.5834 19.1019L10.4367 22.7908C10.3382 23.115 10.4278 23.4743 10.6697 23.7196C10.8488 23.9036 11.0997 24 11.3595 24C11.449 24 11.5297 23.9912 11.6193 23.965L15.4894 22.9135C15.6506 22.8697 15.794 22.7908 15.9104 22.6769L21.1601 17.5509C22.28 16.4556 22.28 14.6681 21.1601 13.5728H21.1512ZM14.7279 21.1785L12.7839 21.7043L13.3572 19.8729L16.9048 16.4118L18.2576 17.7349L14.7279 21.1785ZM19.7984 16.2278L19.6103 16.4118L18.2576 15.0887L18.4457 14.9047C18.8219 14.5367 19.4311 14.5367 19.7984 14.9047C20.1657 15.2727 20.1747 15.8686 19.7984 16.2278Z" fill="black"/>
<path d="M14.6562 5.62541H4.78387C4.25532 5.62541 3.82531 6.046 3.82531 6.56298C3.82531 7.07996 4.25532 7.50055 4.78387 7.50055H14.6562C15.1848 7.50055 15.6148 7.07996 15.6148 6.56298C15.6148 6.046 15.1848 5.62541 14.6562 5.62541Z" fill="black"/>
</svg>
